X: 1005
T: Marybone Assembly
N: Pub: J. Walsh, London, 1748
Z: 2012 John Chambers <jc:trillian.mit.edu>
M: 12/8
L: 1/8
K: G
V: 1
c | BGB ADA BGB ADA | Bcd edc Tc3 B2c | BGB ADA BGB ADA | Bcd cBA G3 G,2 :|
|: gab agf efg dcB | Bcd efg TB3 A3 | gab agf efg dcB | Bcd efg TB2A G3 :|
V: 2 clef=bass middle=d
z | g3 f3 g3 f3 | gab c'ba a3 g2d | g3 f3 g3 f3 | g2B c2d g3 G2 :|
|: g3 d'3 c'3 g3 | g3 G3 d3 D3 | g3 d'3 c'3 g3 | g3 G3 d2D G3 :|
%%begintext align
The 1st Cu. hey contrary sides .|
then on your own sides :|
lead down one Cu. up again and cast off .|.
hands round Six :|:
%%endtext

%%sep 1 1 500
%%sep 1 1 500

